X:0496
T:Jackson's Frolic.
M:6/8
L:1/8
Q:3/8=120
I: :: ::
Z:Jack Campin * www.campin.me.uk * 2009
K:D
B|A2D {G}FED|(F/G/A).D {G}FED|GBG FAF|EFE E2
B|A2D {G}FED|(F/G/A).D {G}FED|B2G A2F|DED D2::
d|f2d    edB| d2B         BAF|EFE EFA|e3  efg|
  fed    edB| d2B         BAF|AFA d2D|DED D2:|

